icons/Suru/scalable/actions/bookmark-new-symbolic.svg

<?xml version="1.0" encoding="UTF-8" standalone="no"?>
<svg
   xmlns:dc="http://purl.org/dc/elements/1.1/"
   xmlns:cc="http://creativecommons.org/ns#"
   xmlns:rdf="http://www.w3.org/1999/02/22-rdf-syntax-ns#"
   xmlns:svg="http://www.w3.org/2000/svg"
   xmlns="http://www.w3.org/2000/svg"
   xmlns:sodipodi="http://sodipodi.sourceforge.net/DTD/sodipodi-0.dtd"
   xmlns:inkscape="http://www.inkscape.org/namespaces/inkscape"
   height="16"
   width="16"
   version="1.1"
   id="svg8"
   sodipodi:docname="bookmark-new-symbolic.svg"
   inkscape:version="1.0.1 (3bc2e813f5, 2020-09-07)">
  <metadata
     id="metadata14">
    <rdf:RDF>
      <cc:Work
         rdf:about="">
        <dc:format>image/svg+xml</dc:format>
        <dc:type
           rdf:resource="http://purl.org/dc/dcmitype/StillImage" />
      </cc:Work>
    </rdf:RDF>
  </metadata>
  <defs
     id="defs12" />
  <sodipodi:namedview
     pagecolor="#ffffff"
     bordercolor="#666666"
     borderopacity="1"
     objecttolerance="10"
     gridtolerance="10"
     guidetolerance="10"
     inkscape:pageopacity="0"
     inkscape:pageshadow="2"
     inkscape:window-width="1920"
     inkscape:window-height="1011"
     id="namedview10"
     showgrid="true"
     inkscape:zoom="35.708892"
     inkscape:cx="6.7798101"
     inkscape:cy="7.2555714"
     inkscape:window-x="0"
     inkscape:window-y="0"
     inkscape:window-maximized="1"
     inkscape:current-layer="svg8">
    <inkscape:grid
       type="xygrid"
       id="grid841" />
  </sodipodi:namedview>
  <g
     id="g858">
    <path
       d="m 13,11 v 2 h -2 v 1 h 2 v 2 h 1 v -2 h 2 v -1 h -2 v -2 z"
       style="color:#000000;font-weight:400;line-height:normal;font-family:sans-serif;text-indent:0;text-align:start;text-decoration:none;text-decoration-line:none;text-decoration-style:solid;text-decoration-color:#000000;text-transform:none;white-space:normal;isolation:auto;mix-blend-mode:normal;fill:#808080;marker:none"
       overflow="visible"
       id="path4" />
    <path
       id="rect4177-6"
       style="color:#000000;font-style:normal;font-variant:normal;font-weight:normal;font-stretch:normal;font-size:medium;line-height:normal;font-family:sans-serif;font-variant-ligatures:none;font-variant-position:normal;font-variant-caps:normal;font-variant-numeric:normal;font-variant-alternates:normal;font-feature-settings:normal;text-indent:0;text-align:start;text-decoration:none;text-decoration-line:none;text-decoration-style:solid;text-decoration-color:#000000;letter-spacing:normal;word-spacing:normal;text-transform:none;writing-mode:lr-tb;direction:ltr;baseline-shift:baseline;text-anchor:start;white-space:normal;shape-padding:0;clip-rule:nonzero;display:inline;overflow:visible;visibility:visible;isolation:auto;mix-blend-mode:normal;color-interpolation:sRGB;color-interpolation-filters:linearRGB;solid-color:#000000;solid-opacity:1;fill:#808080;fill-opacity:1;fill-rule:nonzero;stroke:none;stroke-width:1;stroke-linecap:butt;stroke-linejoin:miter;stroke-miterlimit:4;stroke-dasharray:none;stroke-dashoffset:0;stroke-opacity:1;marker:none;color-rendering:auto;image-rendering:auto;shape-rendering:auto;text-rendering:auto;enable-background:accumulate"
       d="M 3 1 C 1 1 0 1 0 3 L 0 12 C 0 14 1 14 3 14 L 6 14 C 6.97522 14.00008 7.6015625 14.800781 7.6015625 14.800781 L 7.9921875 15.318359 L 8.3925781 14.808594 C 8.3925781 14.808594 9.0421297 14.017522 10 14 L 10 13 L 9.9960938 13 L 9.9921875 13 C 8.9674075 13.0148 8.3683363 13.477519 8.0039062 13.824219 C 7.6404363 13.470199 7 13 6 13 L 3 13 C 2 13 1 13 1 12 L 1 3 C 1 2 2 2 3 2 L 6 2 C 6.98317 2.00009 7.5996094 2.7988281 7.5996094 2.7988281 L 8 3.3339844 L 8.4003906 2.7988281 C 8.4003906 2.7988281 9.01682 2 10 2 L 10 9 L 13 8 L 13 1 L 10 1 C 8.96372 1 8.36524 1.4654225 8 1.8203125 C 7.63465 1.4654025 7.03597 1 6 1 L 3 1 z M 14 1 L 14 2 C 14 2 15 2 15 3 L 15 10 L 16 10 L 16 3 C 16 1 15 1 14 1 z M 3 4 L 3 5 L 6 5 L 6 4 L 3 4 z M 3 6 L 3 7 L 6 7 L 6 6 L 3 6 z M 3 8 L 3 9 L 6 9 L 6 8 L 3 8 z M 3 10 L 3 11 L 6 11 L 6 10 L 3 10 z " />
  </g>
</svg>

<svg xmlns="http://www.w3.org/2000/svg" height="16" width="16"><g color="#000" font-weight="400" font-family="sans-serif" fill="gray"><path d="M13 11v2h-2v1h2v2h1v-2h2v-1h-2v-2z" style="line-height:normal;text-indent:0;text-align:start;text-decoration-line:none;text-decoration-style:solid;text-decoration-color:#000;text-transform:none;white-space:normal;isolation:auto;mix-blend-mode:normal;marker:none" overflow="visible"/><path style="line-height:normal;font-variant-ligatures:none;font-variant-position:normal;font-variant-caps:normal;font-variant-numeric:normal;font-variant-alternates:normal;font-feature-settings:normal;text-indent:0;text-align:start;text-decoration-line:none;text-decoration-style:solid;text-decoration-color:#000;text-transform:none;white-space:normal;shape-padding:0;isolation:auto;mix-blend-mode:normal;solid-color:#000;solid-opacity:1;marker:none" d="M3 1C1 1 0 1 0 3v9c0 2 1 2 3 2h3c.975 0 1.602.8 1.602.8l.39.518.4-.51s.65-.79 1.608-.808v-1h-.008c-1.025.015-1.624.478-1.988.824A2.792 2.792 0 006 13H3c-1 0-2 0-2-1V3c0-1 1-1 2-1h3c.983 0 1.6.799 1.6.799l.4.535.4-.535S9.017 2 10 2v7l3-1V1h-3c-1.036 0-1.635.465-2 .82C7.635 1.465 7.036 1 6 1H3zm11 0v1s1 0 1 1v7h1V3c0-2-1-2-2-2zM3 4v1h3V4H3zm0 2v1h3V6H3zm0 2v1h3V8H3zm0 2v1h3v-1H3z" overflow="visible"/></g></svg>
